common/svg/badge-icon.svg

<svg fill="none" height="20" viewBox="0 0 20 20" width="20" xmlns="http://www.w3.org/2000/svg"><g fill="#000"><path d="m10 1c-.50206 0-.90907.40701-.90907.90909v1.81491l-.00001.00328v1.81819c0 .50207.40701.90909.90908.90909.5021 0 .9091-.40702.9091-.90909v-1.8149-.0033-1.81818c0-.50208-.407-.90909-.9091-.90909z"/><path clip-rule="evenodd" d="m11.8182 3.72727h6.3636c1.0042 0 1.8182.81403 1.8182 1.81818v11.81815c0 1.0042-.814 1.8182-1.8182 1.8182h-16.36362c-1.00415 0-1.81818-.814-1.81818-1.8182v-11.81814c0-1.00416.814028-1.81819 1.81818-1.81819h6.36364v1.8182c0 1.00415.81403 1.81818 1.81818 1.81818 1.0042 0 1.8182-.81403 1.8182-1.81818zm5.4545 7.72733h-6.3636v-.9091h6.3636zm-6.3636 1.8181h6.3636v-.909h-6.3636zm6.3636 1.8182h-6.3636v-.9091h6.3636zm-11.36278-5.90908c2.20362 0 2.0388 2.95068 1.05978 4.41918.97902 0 2.12286.9654 2.12121 1.9445h-6.36364c0-.9791 1.14219-1.9445 2.12121-1.9445-.97902-1.4685-1.14219-4.41918 1.06144-4.41918z" fill-rule="evenodd"/></g></svg>

<svg width="20" height="20" viewBox="0 0 20 20" fill="none" xmlns="http://www.w3.org/2000/svg">
<path d="M10 1C9.49794 1 9.09093 1.40701 9.09093 1.90909V3.724L9.09092 3.72728V5.54547C9.09092 6.04754 9.49793 6.45456 10 6.45456C10.5021 6.45456 10.9091 6.04754 10.9091 5.54547V3.73057L10.9091 3.72727V1.90909C10.9091 1.40701 10.5021 1 10 1Z" fill="black"/>
<path fill-rule="evenodd" clip-rule="evenodd" d="M11.8182 3.72727H18.1818C19.186 3.72727 20 4.5413 20 5.54545V17.3636C20 18.3678 19.186 19.1818 18.1818 19.1818H1.81818C0.81403 19.1818 0 18.3678 0 17.3636V5.54546C0 4.5413 0.814028 3.72727 1.81818 3.72727H8.18182V5.54547C8.18182 6.54962 8.99585 7.36365 10 7.36365C11.0042 7.36365 11.8182 6.54962 11.8182 5.54547V3.72727ZM17.2727 11.4546H10.9091V10.5455H17.2727V11.4546ZM10.9091 13.2727H17.2727V12.3637H10.9091V13.2727ZM17.2727 15.0909H10.9091V14.1818H17.2727V15.0909ZM5.90992 9.18182C8.11354 9.18182 7.94872 12.1325 6.9697 13.601C7.94872 13.601 9.09256 14.5664 9.09091 15.5455H2.72727C2.72727 14.5664 3.86946 13.601 4.84848 13.601C3.86946 12.1325 3.70629 9.18182 5.90992 9.18182Z" fill="black"/>
</svg>
